X:36
T:Christening (reel), The  
B:CRE1.155 (Baisteadh)
F:file ID: cre.1/036chris
S:Michael Tubridy
M:C
L:1/8
Q:180
R:reel
K:D
d2ed BAFA|ABdA BAFA|BEED E2FA|Bdce dcBA:|
d2dc d3A|d2ef gece|d2fd adfa|(3b[ac']b af gece:|

%%%

